X: 157
T: No_80_The_Song_of_Butterfly.krn
%%abc-version 2.0
%%abcx-abcm2ps-target-version 5.9.1 (29 Sep 2008)
%%abc-creator hum2abc beta
%%abcx-conversion-date 2020/08/10 18:54:56
%%gracespace 0 6 6
%%humdrum-veritas 2954225812
%%humdrum-veritas-data 3794586510
%%linebreak <none>
%%barnumbers 0
L: 1/8
M: 2/4
%%staves {1 2}
V: 1 clef=bass
V: 2 clef=bass
K: Ab
[V:1] [K:clef=bass][M:2/4]E/E/EE2 | 
[V:2] [K:clef=bass][M:2/4]G,,G,, G,,G,, | 
[V:1] C>B,A,2 | 
[V:2] G,,G,, G,,G,, | 
[V:1] C/C/C/B,/A,2 | 
[V:2] z4 | 
[V:1] A,<A,A,2 | 
[V:2] z4 | 
[V:1] C/C/EC2 | 
[V:2] z4 | 
[V:1] (3CCB,A,2 | 
[V:2] z4 | 
[V:1] C/C/C/B,/A,2 | 
[V:2] z4 | 
[V:1] A,<A,F,2 | 
[V:2] z4 | 
[V:1] A,CA,2 | 
[V:2] z4 | 
[V:1] A,<F,E,2 | 
[V:2] z4 | 
[V:1] F,F, E,3/C,/ | 
[V:2] z4 | 
[V:1] E,2E,/C,3/ | 
[V:2] z4 | 
[V:1] A,,>A,,A,,2 | 
[V:2] z4 | 
[V:1] A,,4 |]  
[V:2] z4 |]  


